rospo-icon-theme-classic-common/64x64/apps/com.github.bcedu.museic.svg

<svg height="64" width="64" xmlns="http://www.w3.org/2000/svg"><path d="m54.010765 7.2401554-29.950085 6.9049936c-4.221512.532153-4.060689 4.854879-4.060689 4.854879v3.999997 14.429678c-.975385-.280958-1.984963-.42556-2.999998-.429688-6.075128 0-10.9999924 4.924865-10.9999924 10.999993 0 6.075127 4.9248644 10.999992 10.9999924 10.999992 5.685644-.0028 10.432335-4.337893 10.94921-9.999993h.05078v-.999999-26.683576l21.999987-5.232521v15.345796c-.975386-.280958-1.984963-.425559-2.999998-.429687-6.075128 0-10.999992 4.924864-10.999992 10.999992s4.924864 10.999992 10.999992 10.999992c5.685644-.0028 10.432335-4.337893 10.94921-9.999993h.05078v-28.599693-3.400284s.05206-4.6106686-3.989199-3.7598786z" opacity=".2"/><path d="m54.010765 6.2401568-29.950085 6.9049932c-4.221512.532153-4.060689 4.854879-4.060689 4.854879v3.999998 14.429677c-.975385-.280957-1.984963-.425559-2.999998-.429687-6.075128 0-10.9999924 4.924864-10.9999924 10.999992s4.9248644 10.999992 10.9999924 10.999992c5.685644-.0028 10.432335-4.337893 10.94921-9.999993h.05078v-.999999-26.683575l21.999987-5.232522v15.345797c-.975386-.280958-1.984963-.42556-2.999998-.429688-6.075128 0-10.999992 4.924865-10.999992 10.999992 0 6.075128 4.924864 10.999993 10.999992 10.999993 5.685644-.0028 10.432335-4.337893 10.94921-9.999993h.05078v-28.599693-3.400285s.05206-4.6106682-3.989199-3.7598782z" fill="#4f4f4f"/><path d="m54.720703 6.1425781c-.221612.0129658-.456406.0444819-.708984.0976563l-29.951172 6.9042966c-4.221512.532153-4.060547 4.855469-4.060547 4.855469v1s-.160965-4.323316 4.060547-4.855469l29.951172-6.9042966c4.041259-.85079 3.988281 3.7597656 3.988281 3.7597656v-1s .044878-4.0519081-3.279297-3.8574219zm-7.720703 23.8574219c-6.075128 0-11 4.924873-11 11 0 .168757.017871.333099.025391.5.263177-5.841408 5.068238-10.5 10.974609-10.5 1.015035.004128 2.024614.14873 3 .429688v-1c-.975386-.280958-1.984965-.42556-3-.429688zm-30 6c-6.075128 0-11 4.924872-11 11 0 .168757.0178711.333099.0253906.5.2631774-5.841409 5.0682384-10.5 10.9746094-10.5 1.015035.004128 2.024615.14873 3 .429688v-1c-.975385-.280958-1.984965-.42556-3-.429688z" fill="#fff" opacity=".1"/></svg>

<svg xmlns="http://www.w3.org/2000/svg" width="64" height="64" version="1">
 <path style="opacity:0.2" d="M 54.010765,7.2401554 24.06068,14.145149 c -4.221512,0.532153 -4.060689,4.854879 -4.060689,4.854879 v 3.999997 14.429678 c -0.975385,-0.280958 -1.984963,-0.42556 -2.999998,-0.429688 -6.075128,0 -10.9999924,4.924865 -10.9999924,10.999993 C 6.0000006,54.075135 10.924865,59 16.999993,59 c 5.685644,-0.0028 10.432335,-4.337893 10.94921,-9.999993 h 0.05078 V 48.000008 21.316432 L 49.99997,16.083911 v 15.345796 c -0.975386,-0.280958 -1.984963,-0.425559 -2.999998,-0.429687 -6.075128,0 -10.999992,4.924864 -10.999992,10.999992 0,6.075128 4.924864,10.999992 10.999992,10.999992 5.685644,-0.0028 10.432335,-4.337893 10.94921,-9.999993 h 0.05078 V 14.400318 11.000034 c 0,0 0.05206,-4.6106686 -3.989199,-3.7598786 z"/>
 <path style="fill:#4f4f4f" d="M 54.010765,6.2401568 24.06068,13.14515 c -4.221512,0.532153 -4.060689,4.854879 -4.060689,4.854879 v 3.999998 14.429677 c -0.975385,-0.280957 -1.984963,-0.425559 -2.999998,-0.429687 -6.075128,0 -10.9999924,4.924864 -10.9999924,10.999992 0,6.075128 4.9248644,10.999992 10.9999924,10.999992 5.685644,-0.0028 10.432335,-4.337893 10.94921,-9.999993 h 0.05078 V 47.000009 20.316434 L 49.99997,15.083912 v 15.345797 c -0.975386,-0.280958 -1.984963,-0.42556 -2.999998,-0.429688 -6.075128,0 -10.999992,4.924865 -10.999992,10.999992 0,6.075128 4.924864,10.999993 10.999992,10.999993 5.685644,-0.0028 10.432335,-4.337893 10.94921,-9.999993 h 0.05078 V 13.40032 10.000035 c 0,0 0.05206,-4.6106682 -3.989199,-3.7598782 z"/>
 <path style="opacity:0.1;fill:#ffffff" d="M 54.720703 6.1425781 C 54.499091 6.1555439 54.264297 6.18706 54.011719 6.2402344 L 24.060547 13.144531 C 19.839035 13.676684 20 18 20 18 L 20 19 C 20 19 19.839035 14.676684 24.060547 14.144531 L 54.011719 7.2402344 C 58.052978 6.3894444 58 11 58 11 L 58 10 C 58 10 58.044878 5.9480919 54.720703 6.1425781 z M 47 30 C 40.924872 30 36 34.924873 36 41 C 36 41.168757 36.017871 41.333099 36.025391 41.5 C 36.288568 35.658592 41.093629 31 47 31 C 48.015035 31.004128 49.024614 31.14873 50 31.429688 L 50 30.429688 C 49.024614 30.14873 48.015035 30.004128 47 30 z M 17 36 C 10.924872 36 6 40.924872 6 47 C 6 47.168757 6.0178711 47.333099 6.0253906 47.5 C 6.288568 41.658591 11.093629 37 17 37 C 18.015035 37.004128 19.024615 37.14873 20 37.429688 L 20 36.429688 C 19.024615 36.14873 18.015035 36.004128 17 36 z"/>
</svg>
